X:1
T:The Well-Tempered Clavier Part I Fuga XI
T:BWV 856
T:J. S. Bach
%%score { ( 1 2 ) | 3 }
L:1/8
M:3/8
K:F
V:1 treble nm="Harp"
V:2 treble 
V:3 bass 
V:1
 z | z3 | z3 | z3 | z z F | AGF | G=B,/C/D/E/ | FG/F/E/D/ | E/D/C/D/E/F/ | GFE | F/E/D/E/F/G/ | %11
 A/c/B/A/G/F/ | F/4E/4F/4E/4F/4E/4F/4E/4F/4E/4F/4E/4 | F A2 | G c2 | =B e2 | d3 | d/d/cc | dcB | %19
 cE/F/G/A/ | Bc/B/A/G/ | A/G/F/G/A/B/ | c/B/A/B/c/d/ | e/g/f/e/d/c/ | %24
 c/4=B/4c/4B/4c/4B/4c/4B/4c/4B/4c/4B/4 | c/d/e/f/g/a/ | B/c/d/e/f/g/ | a/c'/b/a/g/f/ | %28
 ff/4e/4f/4e/4f/4e/4f/4e/4 | f z z | g3- | g/g/f/e/d/c/ | f3- | f/f/e/d/^c/=B/ | e3- | eAd | %36
 ^c2 a | bag | a^c/d/e/f/ | ga/g/f/e/ | f/a/g/f/e/d/ | ^c3- | c/d/4=c/4B/A/G/F/ | BAG | A3- | %45
 A/B/F/4E/4F/4E/4F/4E/4D/ | D/E/F/G/A/B/ | c/B/c/d/_e/d/ | G/8^F/8G/8F/8E/D/E/F/G/ | A3- | %50
 A/G/A/B/c/d/ | _edc | d^F/G/A/B/ | c/B/d/c/B/A/ | B/^F/G/A/B/^c/ | d/g/c/4B/4c/4B/4A/G/ | G B2- | %57
 B/G/c/B/A/G/ | A3- | A/F/B/A/G/F/ | EFG | ABc | def | g3- | g/c/f/_e/d/c/ | d/c/_e/d/c/B/ | %66
 cE/F/G/A/ | B/A/c/B/A/G/ | A/G/B/A/c/B/ | d/c/e/d/f/e/ | g/A/B/G/A- | A/B<GF/ | F2 z |] %73
V:2
[I:staff +1] C | DCB, | CE,/F,/G,/A,/ | B,C/B,/A,/G,/ | A,/G,/F,/G,/A,/B,/ | C/B,/A,/B,/C/D/ | %6
 E/G/F/E/D/C/ | C/4=B,/4C/4B,/4C/4B,/4C/4B,/4C/4B,/4C/4B,/4 | CB,A, | %9
 B,/A,/G,/A,/[I:staff -1]B,/C/ | A,2 D | EGC | C3- | C2 F | E2 A | G2 c- | c/c/B/A/G/F/ | E>BA/G/ | %18
 F/E/[I:staff +1]D/E/[I:staff -1]F/G/ | A z z | x3 | z z F | AGF | G=B,/C/D/E/ | FG/F/E/D/ | %25
 E/D/C/D/E/C/ | D2 z | z z c | dcB | cE/F/G/A/ | Bc/B/A/G/ | A3- | AB/A/G/F/ | G3- | GA/G/F/E/ | %35
 F/E/F/G/A/G/ | A/B/A/G/[I:staff +1]F/E/ | D/^C/D/F/E/D/ | ^C[I:staff -1] z A | BAG | %40
 A[I:staff +1]^C/D/E/F/ | G[I:staff -1]A/G/F/E/ | F2 z | ^C3- | C/A,/B,/^C/D/E/ | F/D/ ^C2 | D2 z | %47
 x3 | z z D | _EDC | D[I:staff +1]^F,/G,/A,/B,/ |[I:staff -1] C/B,/D/C/B,/A,/ | B,/D/C/B,/A,/G,/ | %53
[I:staff +1] ^F,[I:staff -1] z z |[I:staff +1] G,/A,/B,/C/D/A,/ | A,G,^F, | %56
 G,/[I:staff -1]D/G/F/E/D/ | E3 | z/ C/F/_E/D/C/ | D3 | CDE | FGA | B3- | B/G/c/B/A/G/ | A3- | %65
 A[I:staff +1]E,G,- | G,/F,/B,/A,/G,/F,/ | G,B,,/C,/D,/E,/ | F,3- | F,2 B,- | B,[I:staff -1]EF- | %71
 F E2 | !fermata!F2 z |] %73
V:3
 z/ z/ | z3 | z3 | z3 | z3 | z3 | z3 | z3 | z3 | z z C, | D,C,B,, | C,E,,/F,,/G,,/A,,/ | %12
 B,,C,/B,,/A,,/G,,/ | A,,/G,,/F,,/G,,/A,,/B,,/ | C,/=B,,/A,,/B,,/C,/D,/ | E,/G,/F,/E,/D,/C,/ | %16
 C,/4=B,,/4C,/4B,,/4C,/4B,,/4C,/4B,,/4C,/4B,,/4C,/4B,,/4 | C,D,/E,/F, | B,3 | A,/C/B,/A,/G,/F,/ | %20
 F,/4E,/4F,/4E,/4F,/4E,/4F,/4E,/4F,/4E,/4F,/4E,/4 | F,2 z | z3 | z3 | z3 | z2 C | DCB, | %27
 CE,/F,/G,/A,/ | B,C/B,/A,/G,/ | A,/C/B,/A,/G,/F,/ | %30
 F,/4E,/4F,/4E,/4F,/4E,/4F,/4E,/4F,/4E,/4F,/4E,/4 | F,G,A, | D,2 z | E,F,G, | ^C,2 ^C | DCB, | %36
 A,3- | A,3- | A,3- | A,3- | A,2 A, | B,A,G, | A,^C,/D,/E,/F,/ | G,A,/G,/F,/E,/ | F,>G,F,/E,/ | %45
 D,/G,/A,A,, | D,,2 D, | _E,D,C, | D,^F,,/G,,/A,,/B,,/ | C,/B,,/D,/C,/B,,/A,,/ | B,, z z | ^F, z2 | %52
 G, z2 | _E, z z | D, z2 | z/ C,/ D,D, | G,,A,,B,, | C,D,E, | F,G,A, | B,3- | B,/G,/C/B,/A,/G,/ | %61
 F,/C,/F,/_E,/D,/C,/ | B,,/C,/B,,/A,,/G,,/F,,/ | E,,2 z | F,,G,,A,, | B,,2 z | A,,2 z | G,,2 z | %68
 F,,G,,A,, | B,,C,D, | E,C,F, | B,,C,C,, | !fermata!F,,2 z |] %73

